X:1
T:Title
%%score { ( 1 3 ) | ( 2 4 ) }
L:1/8
M:4/4
K:Bb
V:1 treble nm="Grand Piano"
V:3 treble 
V:2 bass 
V:4 bass 
V:1
 z4 z2[Q:1/4=110] [B,D]>[CE] | [DF]2 [DF]2 [DF]2 [DF]2 | [EG]2 [DF]2 [DF]2 [DB]2 | B3 c B2 G2 | %4
 [DF]6 [DG]2 | A2 A2 G2 A2 | [DB]3 [DF] [DF]2 [DFB]2 | [FA]2 G2 B2 =E2 | F6 z2 | A6 z2 | [DB]6 z2 | %11
 c3 c B2 B2 | A6 z2 | [EA]6 z2 | [DB]6 [DB]2 | [Fd]3 c B2 A2 |[M:3/4] [DB]6 |] %17
V:2
 z4 z2 [B,,F,]2 | [B,,B,]2 [B,,B,]2 [B,,B,]2 [B,,B,]2 | [B,,B,]2 [B,,B,]2 [B,,B,]2 [B,,F,]2 | %3
 [E,G,E]3 [E,G,E] [E,G,E]2 [E,B,E]2 | [B,,B,]6 [B,,B,]2 | [F,CE]2 [F,CE]2 [F,CE]2 [F,CE]2 | %6
 [B,,B,]3 [B,,B,] [B,,B,]2 B,,2 | [C,C]2 [C,C]2 [C,G,C]2 [C,B,C]2 | [F,A,C]6 z2 | E6 z2 | %10
 F,2 F,2 F,2 [F,B,D]2 | [F,A,E]3 [F,A,E] [F,B,D]2 [F,B,D]2 | [F,C]2 F,2 F,2 F,2 | F,2 F,2 F,2 F,2 | %14
 B,2 B,2 B,2 B,2 | [D,B,]3 [E,G,E] [F,D]2 [F,CE]2 |[M:3/4] [B,,B,]6 |] %17
V:3
 x8 | x8 | x8 | x8 | x8 | x8 | x8 | x8 | x8 | z2 C2 C2 C2 | B,2 B,2 B,2 B2 | x8 | x8 | %13
 C2 C2 C2 C2 | x8 | x8 |[M:3/4] x6 |] %17
V:4
 x8 | x8 | x8 | x8 | x8 | x8 | x8 | x8 | x8 | [F,C]2 F,2 F,2 F,2 | x8 | x8 | x8 | x8 | x8 | x8 | %16
[M:3/4] x6 |] %17

